icons/Facebook.svg

<svg width="24" height="24" viewBox="0 0 24 24" fill="none" xmlns="http://www.w3.org/2000/svg">
<rect opacity="0.01" width="24" height="24" fill="white"/>
<path fill-rule="evenodd" clip-rule="evenodd" d="M13.3333 9.33333H16L15.6667 12H13.3333V20H9.875V12H8V9.33333H9.875V7.54167C9.875 6.37499 10.1667 5.49306 10.75 4.89583C11.3333 4.29861 12.3055 4 13.6667 4H16V6.66667H14.5833C14.0556 6.66667 13.7153 6.75 13.5625 6.91667C13.4097 7.08333 13.3333 7.36111 13.3333 7.75V9.33333Z" fill="#ffffff"/>
</svg>

<svg width="24" height="24" fill="none" xmlns="http://www.w3.org/2000/svg"><path opacity=".01" fill="#fff" d="M0 0h24v24H0z"/><path fill-rule="evenodd" clip-rule="evenodd" d="M13.333 9.333H16L15.667 12h-2.334v8H9.875v-8H8V9.333h1.875V7.542c0-1.167.292-2.049.875-2.646S12.306 4 13.667 4H16v2.667h-1.417c-.527 0-.868.083-1.02.25-.153.166-.23.444-.23.833v1.583z" fill="#fff"/></svg>
